symbols/web/tablet_mac/materialsymbolsoutlined/tablet_mac_grad200_20px.svg

<svg xmlns="http://www.w3.org/2000/svg" height="20" width="20"><path d="M4.125 19.875q-.979 0-1.635-.656-.657-.657-.657-1.636V2.417q0-.979.657-1.636.656-.656 1.635-.656h11.75q.979 0 1.635.656.657.657.657 1.636v15.166q0 .979-.657 1.636-.656.656-1.635.656Zm0-7.042h11.75V5.375H4.125Zm0 2.292v2.458h11.75v-2.458Zm0-12.042h11.75v-.666H4.125Zm0-.666v.666-.666Zm0 15.166v-2.458 2.458Zm5.896-.229q.396 0 .698-.302.302-.302.302-.698 0-.396-.302-.698-.302-.302-.698-.302-.396 0-.698.302-.302.302-.302.698 0 .396.302.698.302.302.698.302Z"/></svg>

<svg xmlns="http://www.w3.org/2000/svg" height="20" width="20"><path d="M4.125 19.875Q3.146 19.875 2.49 19.219Q1.833 18.562 1.833 17.583V2.417Q1.833 1.438 2.49 0.781Q3.146 0.125 4.125 0.125H15.875Q16.854 0.125 17.51 0.781Q18.167 1.438 18.167 2.417V17.583Q18.167 18.562 17.51 19.219Q16.854 19.875 15.875 19.875ZM4.125 12.833H15.875V5.375H4.125ZM4.125 15.125V17.583Q4.125 17.583 4.125 17.583Q4.125 17.583 4.125 17.583H15.875Q15.875 17.583 15.875 17.583Q15.875 17.583 15.875 17.583V15.125ZM4.125 3.083H15.875V2.417Q15.875 2.417 15.875 2.417Q15.875 2.417 15.875 2.417H4.125Q4.125 2.417 4.125 2.417Q4.125 2.417 4.125 2.417ZM4.125 2.417Q4.125 2.417 4.125 2.417Q4.125 2.417 4.125 2.417V3.083V2.417Q4.125 2.417 4.125 2.417Q4.125 2.417 4.125 2.417ZM4.125 17.583Q4.125 17.583 4.125 17.583Q4.125 17.583 4.125 17.583V15.125V17.583Q4.125 17.583 4.125 17.583Q4.125 17.583 4.125 17.583ZM10.021 17.354Q10.417 17.354 10.719 17.052Q11.021 16.75 11.021 16.354Q11.021 15.958 10.719 15.656Q10.417 15.354 10.021 15.354Q9.625 15.354 9.323 15.656Q9.021 15.958 9.021 16.354Q9.021 16.75 9.323 17.052Q9.625 17.354 10.021 17.354Z"/></svg>
